public/assets/img/layout/home/star.svg

<svg fill="none" height="17" viewBox="0 0 17 17" width="17" xmlns="http://www.w3.org/2000/svg" xmlns:xlink="http://www.w3.org/1999/xlink"><linearGradient id="a" gradientUnits="userSpaceOnUse" x1="1.72317" x2="16.2217" y1="9.35963" y2="8.25418"><stop offset="0" stop-color="#ffb249"/><stop offset="1" stop-color="#fb9100"/></linearGradient><path d="m6.21922 3.94549 1.53692-3.278498 2.01864 2.862918 4.28962-1.66234-.7341 4.45599 3.3377 1.41991-3.0395 2.28573 1.5828 4.0866-4.4157-.7042-1.38785 3.2554-2.13333-2.9437-4.02581 1.57.6423-4.2598-3.222941-1.67387 2.798561-2.07792-1.54838-4.1443z" fill="url(#a)"/></svg>

<svg width="17" height="17" viewBox="0 0 17 17" fill="none" xmlns="http://www.w3.org/2000/svg">
<path d="M6.21922 3.94549L7.75614 0.666992L9.77478 3.52991L14.0644 1.86757L13.3303 6.32356L16.668 7.74347L13.6285 10.0292L15.2113 14.1158L10.7956 13.4116L9.40775 16.667L7.27442 13.7233L3.24861 15.2933L3.89091 11.0335L0.667969 9.35963L3.46653 7.28171L1.91815 3.13741L6.21922 3.94549Z" fill="url(#paint0_linear_5079_511)"/>
<defs>
<linearGradient id="paint0_linear_5079_511" x1="1.72317" y1="9.35963" x2="16.2217" y2="8.25418" gradientUnits="userSpaceOnUse">
<stop stop-color="#FFB249"/>
<stop offset="1" stop-color="#FB9100"/>
</linearGradient>
</defs>
</svg>
